X: 693
T: Ag Taisteal Na Blárnan
R: waltz
M: 3/4
K: Gmajor
G>A B4|D>E G4|EA3 B<A|GA B4|
G2 c4|B<A c4|d<e G4|E<G G4|
c>B A<G =F2|A<=F E4|G<E D2 E2|G2 F<G G2:|
G>A B4|G<B d4|B<d e4|f2 {fgf}f2 e<f|
g2 d3B-|B<A G>A B<c|d4 B<d|
g2 a2 g<a|b<g g4|d2 g>f e<f|g<e d2-d2|
d2 c<B A2-|A2 B<A G<A|B4 G2|c4 B<A|
c4 d<e|G4 E<G|G2{A}G4|c>B A<G =F2-|
=F2 A<=F E2-|E2 G<E D>E|G2 {A}G4||

